X:78
T: ROLAND DER RIES AM RATHHAUS ZU BREMEN
N: B0106
O: Europa, Mitteleuropa, Deutschland
R: Helden -, Ehren -, Gedaechtnis -, Kriegs - Lied
M: 4/4
L: 1/8
K: E
 | E2B,B,F2B,2 | =G2FEF2B,2 |
E2B,B,F2B,2 | =G2FEB2z2 |
=d2=cBA2D2 | =c2BA=G2=D2 |
EFGAB2E2 | =c2BAB4 |
e2BBc2A2 | F2BBE2z2

@@@ Tune index: 1881
